X: 1
T: Killiecrankie
R: slow march
Z: 1997 by John Chambers <jc@trillian.mit.edu>
M: 2/4
L: 1/8
K: D
|: DE FG \
|| "D"A2 AB | A2 AB | AG FG | A2 AB | AG FE | DE FG | A2 AB A2 dc |
|| "Bm"B2 Bc | B2 Bc | "G"BA FA | B2 Bc | "D"BA FE | DE FA | "G"B2 Bc | B2 b2 |
|| "G"ba fb | "D"af eg | fe df | "A"e2 de | "Bm"fe dB | BA dF | "D"A2 AB | A2 FA |
|| "G"B2 AB | d2 Bd | "A"e2 de | "D"f2 fe | dB AF | d2 F2 | "A"E4 :| "D"D4 |]
